X: 1
T: Bill Vance
%O: from Viola Ruth
B: Lee Owens "Advanced Square Dance Figures of the West and Southwest" p.69
R: jig
Z: 2010 John Chambers <jc:trillian.mit.edu>
M: 6/8
L: 1/8
K: G
|: "G"edB edB | G2G B2B | "C"AGE AGE | "G"D3- D2C |
B,DG GFG | "C"EEE A2G | "D7"FEF DEF |1 "G"G3- G2G :|2 "G"G3- G3 ||
|: [D2B,2][DB,] DEF | "C"E2E A2G | "D7"F2F FED | "G"G2G GAB |
D2D DEG | "C"E2E A2G | "D7"FEF DEF |1 "G"G3- G2d :|2 "G"G3- G3 |]

%%sep 1 1 500

